public/assets/site/layout.svg

<svg xmlns="http://www.w3.org/2000/svg" width="32" height="32" viewBox="0 0 32 32"><path fill="#fff" d="M31.951 29.691h-31.902v-27.382h31.902v27.382zm-21.042-.927h20.114v-12.487h-20.114v12.487zm-9.932 0h9.005v-12.487h-9.005v12.487zm0-13.414h30.047v-6.218h-30.047v6.218zm0-7.145h30.047v-4.969h-30.047v4.969zm2.743-1.553c-.502 0-.911-.408-.911-.91 0-.503.408-.91.911-.91s.91.407.91.91c0 .502-.408.91-.91.91zm4.167-.91c0-.503-.408-.91-.91-.91-.503 0-.911.407-.911.91 0 .502.408.91.911.91.502 0 .91-.408.91-.91zm3.258 0c0-.503-.408-.91-.911-.91-.502 0-.91.407-.91.91 0 .502.408.91.91.91s.911-.408.911-.91zm15.873 12.561h-14.162v.972h14.161v-.972zm0 4.16h-14.162v.972h14.161v-.972zm-3.099-2.079h-11.063v.972h11.062v-.972zm0 4.16h-11.063v.972h11.062v-.972z"/></svg>

<?xml version="1.0" encoding="utf-8"?>
<!-- Generator: Adobe Illustrator 16.0.0, SVG Export Plug-In . SVG Version: 6.00 Build 0)  -->
<!DOCTYPE svg PUBLIC "-//W3C//DTD SVG 1.1//EN" "http://www.w3.org/Graphics/SVG/1.1/DTD/svg11.dtd">
<svg version="1.1" id="Layer_1" xmlns="http://www.w3.org/2000/svg" xmlns:xlink="http://www.w3.org/1999/xlink" x="0px" y="0px"
	 width="32px" height="32px" viewBox="0 0 32 32" enable-background="new 0 0 32 32" xml:space="preserve">
<path fill="#FFFFFF" d="M31.951,29.691H0.049V2.309h31.902V29.691z M10.909,28.764h20.114V16.277H10.909V28.764z M0.977,28.764
	h9.005V16.277H0.977V28.764z M0.977,15.35h30.047V9.132H0.977V15.35z M0.977,8.205h30.047V3.236H0.977V8.205z M3.72,6.652
	c-0.502,0-0.911-0.408-0.911-0.91c0-0.503,0.408-0.91,0.911-0.91s0.91,0.407,0.91,0.91C4.63,6.244,4.222,6.652,3.72,6.652z
	 M7.887,5.742c0-0.503-0.408-0.91-0.91-0.91c-0.503,0-0.911,0.407-0.911,0.91c0,0.502,0.408,0.91,0.911,0.91
	C7.479,6.652,7.887,6.244,7.887,5.742z M11.145,5.742c0-0.503-0.408-0.91-0.911-0.91c-0.502,0-0.91,0.407-0.91,0.91
	c0,0.502,0.408,0.91,0.91,0.91C10.736,6.652,11.145,6.244,11.145,5.742z M27.018,18.303H12.856v0.972h14.161V18.303z M27.018,22.463
	H12.856v0.972h14.161V22.463z M23.919,20.384H12.856v0.972h11.062V20.384z M23.919,24.544H12.856v0.972h11.062V24.544z"/>
</svg>
